X:3
T:Wedding March from Midsummer Night's Dream
C:Mendelssohn
M:4/4
L:1/8
K:C
z6 (3CCC|C4 z2 (3CCC|C4 z2 (3CCC|[C2E2] (3[CE][CE][CE] [C2E2] (3[CE][CE][CE]|
[C2E2G2] (3[CEG][CEG][CEG] [C2E2G2] (3[CEG][CEG][CEG]|
"Am" c4 "B" B3 ^F|("B/E" A2 "Em" G2) "Dm/F" =F2 D2|"C/G" C4 {B,C}"G" D2 G,>D|"C" E2 "^no chord" CE GCEG|
"Am" c4 "B" B3 ^F|("B/E" A2 "Em" G2) "Dm/F" =F2 D2|"C/G" C4 {B,C}E2 "G" D>E|("G" D4 "C" C2) (3CCC|
"^no chord" C2 (3CEG c2 (3CCC|C2 (3EGc e2 (3CCC|[C2E2] (3EGc e2 (3Gce|g2 (3Gce g2 (3ceg |
"Am" c4 "B" B3 ^F|("B/E" A2 "Em" G2) "Dm/F" =F2 D2|"C/G" C4 {B,C}"G" D2 G,>D|"C" E2 "^no chord" CE GCEG|
"Am" c4 "B" B3 ^F|("B/E" A2 "Em" G2) "Dm/F" =F2 D2|"C/G" C4 {B,C}E2 "G" D>E|("G" D4 "C" C2) "^no chord" (3CCC|
|: "C" c4 c3c|("C/G" e2 "Bdim/G" d2) B2 G2|"C" G3c "C/E" c3e|("C/G" e2 "Bdim/G" d2) B2 G2|
"C" G3e "C/E" e3g|("F" g4 "Dm/F" f2) "F" e2|"F" d2 ("Faug" ^c>e "F#dim" d2) "D/F#" A>c|"G" B2 "^no chord" G2 A2 B2|
"Am" c4 "B" B3 ^F|("B/E" A2 "Em" G2) "Dm/F" =F2 D2|"C/G" C4 {B,C}"G" D2 G,>D|"C" E2 "^no chord" CE GCEG|
"Am" c4 "B" B3 ^F|("B/E" A2 "Em" G2) "Dm/F" =F2 D2|"C/G" C4 {B,C}E2 "G" D>E|[1 ("G" D4 "C" C2) z2:|[2 ("G" D4 "C" C4) |]

